!!!COM: Bach, Johann Sebastian
!!!OPR: Joh. Seb. Bachs vierstimmige Choralgesänge
!!!XEN: Four-part Chorales
!!!OTL: Chorale 133. Nun danket Alle Gott
!!!SCT: BWV 386
!!!SCA: Thematisch-systematisches Verzeichnis der musikalischen Werke Johann Sebastian Bach: Bach-Werke-Verzeichnis (Schmieder)
!!!YOR: Bach Gesellschaft Edition xxxix
!!!ENC: Steven Rasmussen
!!!CDT: 1685/3//-1750/7/28/
!!!OCY: Deutschland
!!!YEC: Copyright (c) 1994, 2000 Center for Computer Assisted Research in the Humanities
!!!YEM: Rights to all derivative editions reserved
!!!YEN: United States of America
**kern	**kern	**kern	**kern	**silbe
*I:[BASSO]	*I:[TENORE]	*I:[ALTO]	*I:[SOPRANO]	*I:[SOPRANO]
*>[A,A,B]	*>[A,A,B]	*>[A,A,B]	*>[A,A,B]	*
*>A	*>A	*>A	*>A	*
*clefF4	*clefGv2	*clefG2	*clefG2	*
*k[f#c#g#]	*k[f#c#g#]	*k[f#c#g#]	*k[f#c#g#]	*
*A:	*A:	*A:	*A:	*
*M4/4	*M4/4	*M4/4	*M4/4	*
4AA	4c#	4a	4ee	Nunder
=1	=1	=1	=1	=1
8AL	4c#	4a	4ee	dan-gro-
8BJ	.	.	.	.
8c#L	4c#	4a	4ee	-ket-sse
8AJ	.	.	.	.
8DL	4d	4a	4ff#	Al-Din-
8EJ	.	.	.	.
8F#L	4d	4a	4ff#	-le-ge
8DJ	.	.	.	.
=2	=2	=2	=2	=2
2A;	2c#;	2a;	2ee;	Gotttut
4r	4r	4r	4r	.
4A	4f#	4a	4cc#	mitan
=3	=3	=3	=3	=3
4G#	4e	4b	4dd	Her-uns
4A	4e	4a	4cc#	-zen,und
8EL	4e	4g#	4b	Mundal-
8DJ	.	.	.	.
8C#L	4e	4a	8.cc#L	und-len
8AAJ	.	.	.	.
.	.	.	16ddJk	.
=4	=4	=4	=4	=4
2E	8eL	8aL	2b	Hän-En-
.	16dL	8f#J	.	.
.	16c#JJ	.	.	.
.	4d	4g#	.	.
4AA;	4c#;	4e;	4a;	-den,-den;
=:|!	=:|!	=:|!	=:|!	=:|!
*>B	*>B	*>B	*>B	*
4E	8BL	8g#L	4b	der
.	8AJ	8f#J	.	.
=5	=5	=5	=5	=5
8EL	8G#L	4e	4b	uns
8F#J	8AJ	.	.	.
8G#L	4B	4e	4b	von
8EJ	.	.	.	.
8AAL	8BL	4e	4cc#	Mut-
8BBJ	16AL	.	.	.
.	16G#JJ	.	.	.
8C#L	4A	4e	4cc#	-ter-
8AAJ	.	.	.	.
=6	=6	=6	=6	=6
2EE;	2G#;	2e;	2b;	-leib
4r	4r	4r	4r	.
4E	4e	4g#	4b	und
=7	=7	=7	=7	=7
8AL	4e	4a	8cc#L	Kin-
8BJ	.	.	8dd#J	.
8c#L	4e	4g#	4ee	-des-
8G#J	.	.	.	.
8AL	4c#	4f#	4ee	-bei-
8F#J	.	.	.	.
8BL	4B	4f#	4dd#	-nen
8BBJ	.	.	.	.
=8	=8	=8	=8	=8
2E;	2B;	2g#;	2ee;	an
4r	4r	4r	4r	.
4AA	4c#	4a	4ee	un-
=9	=9	=9	=9	=9
8DL	4d	8aL	4ff#	-zäh-
8C#J	.	8bJ	.	.
8BBL	4c#	4cc#	4ee	-lig
8AA#J	.	.	.	.
8BBL	4f#	(8cc#	4dd	viel
8DJ	.	4b)	.	.
8EL	8gnL	.	4cc#	zu
8F#J	8f#J	8a#	.	.
=10	=10	=10	=10	=10
2BB;	2f#;	2b;	2dd;	gut
4r	4r	4r	4r	.
8C#L	4e	4a	4cc#	und
8DJ	.	.	.	.
=11	=11	=11	=11	=11
4E	4e	4g#	4b	noch
8AL	8eL	4a	8.cc#L	jetz-
8F#J	8f#J	.	.	.
.	.	.	16ddJk	.
8DL	8f#L	4a	4.b	-und
8BBJ	8dJ	.	.	.
8EL	8.BL	4g#	.	.
8EEJ	.	.	8a	ge-
.	16eJk	.	.	.
=12	=12	=12	=12	=12
2.AA;	2.c#;	2.e;	2.a;	-tan.
==|!	==|!	==|!	==|!	==|!
*-	*-	*-	*-	*-
!!!RWG: Key is interpreted using the Humdrum key tool.
!!!URL-pdf: https://s9.imslp.org/files/imglnks/usimg/6/6b/IMSLP24489-PMLP09471-CCARH_Bach_Chorales.pdf#page=94 Musedata edition
!!!URL-pdf: https://s9.imslp.org/files/imglnks/usimg/7/7a/IMSLP04155-Bach_-_BGA_253-438.pdf#page=74 	Bach-Gesellschaft Ausgabe, Band 39 (pp.175-276) Leipzig: Breitkopf und Härtel, 1892. Plate B.W. XXXIX.
!!!END: 1994/07/19
!!!EMD: Converted from MuseData to Humdrum Dec 19, 2000, by Andreas Kornstaedt using muse2kern.
!!!EED: Craig Stuart Sapp
!!!EEV: 2024/03/31
!!!filter-keyboard: extract -i kern | satb2gs
!!!title: @{OTL} (@{SCT})
